%
O2142011 
(Mahutin's Letter) 
(This template is for any Haas CNC machine.  EOL characters are not required.  If using another machine check controller documentation.)

(Startup Process)
M06 T1	 					(Select tool)
M03 S5000 					(Start Spindle, Clockwise, at 5,000 RPM)
G54 						(Use Work Offset G54)
G00 						(Rapid Movement)
G90 G17 					(Safe Startup Line: Absolute Programming and Set the active plane as XY)
	X0. Y0. 				(Position at 0 for X and Y axes - set in work offsets)
G43 H01 					(Use Tool Offset #1)
G91 						(Change to incremental positioning)
			Z0.15 			(Move to Z position just above work)
(END Startup Process)

(Set Feedrate and drop to just above origin)
G01 F5. 					(Change to Cutting speed and set Feed Rate.)
			Z-0.3			(Drop cutter into work)

[POSITIONS GO HERE]
G00 X2.0 Y2.25
G01 Z-0.5 F12.0
X2.50
Y2.0
X2.75
G02 Y1.5 R0.25
G01 X2.5
Y1.25
X3.25
Y1.75
X2.0
Y2.25
X2.0
(End Sequence)
			Z2.				(Raise Cutter)
G28							(Machine Home) 
M30 						(End of Program)
%
